X: 222
T:The Trees They Grow So High
S:Penguin Book of English Folk Songs
M:6/8
L:1/8
Q:3/8=60
K:CMin
 c   | B2G  E2G|(B2c) c2 c|(FG)A (GF)E|C3  z2
 E   | E2E  E2F| G2G (GF)E| F2 G (FE)D|C3  z2
 c/c/|(B2G) E2G| B2c  c2 c|(FG)A (GF)E|C3  z
CD   | E2F  E2D| C3   C2 C| C3    G3- |G3- G2|]

This unusual tune from the Western Isles (a song with words from a
poetic tradition common to Gaelic Scotland and Ireland) seems to be
centred on F, but never really cadences on it and ends on the dominant
as if in C phrygian:

